X: 2
T: Temperance Reel
I: RJ	R-10	G	reel
M: C |
R: reel
K: G
%(3DEF
|:\
"G"G2GF GABc | dBge dBAc | "Em"BEED EFGA | "D"BGAF GFED ||\
"G"G2GF GABc | dBge dBAc |
"Em"BEED EFGA |1 "D"BdAF "G"G2(3DEF :|2 "D"BdAF "G"G2 |: B2 |\
"Em"Beed e3f | geaf gfed | "D"Adde d3e |
feaf gfed ||\
"Em"Beed e3f | geaf gfed | BEED EFGA |1 "D"BdAF "G"G2 :|2 "D"BGAF "G"GFED |]
% text Roaring Jelly  R-10


